svg/disk-success.svg

<?xml version="1.0" encoding="UTF-8"?>
<svg xmlns="http://www.w3.org/2000/svg" xmlns:xlink="http://www.w3.org/1999/xlink" width="32" height="32" viewBox="0 0 32 32">
<path fill-rule="nonzero" fill="rgb(22.745098%, 85.490196%, 49.019608%)" fill-opacity="1" d="M 4.921875 0 C 4.34375 0 3.84375 0.425781 3.71875 1.039062 L 0.421875 20.621094 C 0.699219 20.527344 0.988281 20.480469 1.28125 20.480469 L 30.71875 20.480469 C 31.03125 20.480469 31.328125 20.546875 31.601562 20.640625 L 28.339844 1.019531 C 28.222656 0.425781 27.71875 0 27.140625 0 Z M 1.28125 21.761719 C 0.539062 21.761719 0 22.296875 0 23.039062 L 0 30.71875 C 0 31.460938 0.539062 32 1.28125 32 L 30.71875 32 C 31.460938 32 32 31.460938 32 30.71875 L 32 23.039062 C 32 22.296875 31.460938 21.761719 30.71875 21.761719 Z M 4.480469 25.601562 L 5.761719 25.601562 L 5.761719 27.519531 L 7.679688 27.519531 L 7.679688 25.601562 L 8.960938 25.601562 L 8.960938 27.519531 L 10.878906 27.519531 L 10.878906 25.601562 L 12.160156 25.601562 L 12.160156 27.519531 L 14.078125 27.519531 L 14.078125 25.601562 L 15.359375 25.601562 L 15.359375 27.519531 L 17.28125 27.519531 L 17.28125 25.601562 L 18.558594 25.601562 L 18.558594 27.519531 L 20.480469 27.519531 L 20.480469 25.601562 L 21.761719 25.601562 L 21.761719 28.800781 L 4.480469 28.800781 Z M 26.238281 25.601562 C 26.945312 25.601562 27.519531 26.175781 27.519531 26.878906 C 27.519531 27.585938 26.945312 28.160156 26.238281 28.160156 C 25.550781 28.132812 25.007812 27.566406 25.007812 26.882812 C 25.007812 26.195312 25.550781 25.628906 26.238281 25.601562 M 26.238281 25.601562 "/>
</svg>

<svg role="img" viewBox="0 0 32 32" xmlns="http://www.w3.org/2000/svg"><path d="M4.922 0c-.578 0-1.078.426-1.203 1.04L.422 20.62q.417-.14.86-.14h29.437c.312 0 .61.066.883.16L28.34 1.02C28.223.426 27.719 0 27.14 0Zm-3.64 21.762c-.743 0-1.282.535-1.282 1.277v7.68C0 31.46.54 32 1.281 32H30.72c.74 0 1.28-.54 1.28-1.281v-7.68c0-.742-.54-1.277-1.281-1.277Zm3.198 3.84h1.282v1.918H7.68v-1.918h1.28v1.918h1.919v-1.918h1.281v1.918h1.918v-1.918h1.281v1.918h1.922v-1.918h1.278v1.918h1.921v-1.918h1.282V28.8H4.48Zm21.758 0c.707 0 1.282.574 1.282 1.277 0 .707-.575 1.281-1.282 1.281a1.283 1.283 0 0 1-1.246-1.281 1.28 1.28 0 0 1 1.246-1.277m0 0" fill="rgb(22.745098%, 85.490197%, 49.019608%)"/></svg>
